X:13
T:Bill Sullivan's
R:polka
D:Kevin Burke: If the Cap Fits
Z:id:hn-polka-13
M:2/4
L:1/8
K:A
a2 a>f|ec a>f|ec a>f|ec BA|a2 a>f|ec a>f|ec B>c|1 BA A2:|2 BA A>B||
|:ce ec|df fe|ce eA/B/|cB BA/B/|ce ec|df fe|ce B>c|1 BA A>B:|2 BA A2||
P:Variations:
a2 a>f|ec a>e|ce a>e|ce BA|a2 a>f|ec a>e|ce B>c|1 BA A2:|2 BA A>B||
|:ce e/c/A/c/|df fe|ce e/c/A/B/|cB BA/B/|ce ec|df fe|ce B>c|1 BA A>B:|2 BA A2||
<end>
<start>
